**kern
*part1
*staff1
*clefG2
*k[b-]
*M2/4
*>A
16dLL
16g
16b-JJ
=1!|:
(<16ddLL
16b-
16a
16gJJ)
(<16ddLL
16b-
16a
16gJJ)
=2
(<16ddLL
16b-
16a
16gJJ)
(<16ddLL
16b-
16a
16gJJ)
=3
(>16aLL
16b-
16cc#X
16ddJJ
16cc#LL
16b-
16a
16gJJ)
=4
(>8cc#XL
(>8qee/
8ddJ)
8r
8dd
=5
(<16ddLL
16b-
16a
16gJJ)
(<16ddLL
16b-
16a
16gJJ)
=6
(<16ddLL
16b-
16a
16gJJ)
(<16ddLL
16b-
16a
16gJJ)
=7
(<16f#XLL
16g
16a
16b-JJ
16aLL
16g
16f#
16aJJ)
=8
4.g
8gg
=9:|!
4g
8r
=!|:
8g
=10
*>B
8ffL
[8ff^J
16ffLL]
16ee
16gg
16ffJJ
=11
8eeL
[8eeJ
16eeLL]
16dd
16ff
16eeJJ
=12
8ddL
[8ddJ
16ddLL]
16cc#X
16ee
16ddJJ
=13
(>16cc#XLL
16dd
16cc#
16b-JJ)
(<16cc#LL
16b-
16a
16gJJ)
=14
16aLL
16b-
16cc#X
16ddJJ
16cc#LL
16b-
(<8qb-/
16a)
16gJJ
=15
8cc#XL
(>8qee/
8ddJ)
8r
8ff
=16
16ffLL
(>16ee
16gg)
(>16ffJJ
16eeLL)
(>16dd
16ff)
(>16eeJJ
=17
16ddLL)
(>16cc#X
16ee)
(>16ddJJ
16cc#LL)
16b-
16a
16gJJ
=18
16aLL
16b-
16cc#X
16ddJJ
16cc#LL
16b-
16a
16b-JJ
=19
4g
8r
=20:|!
4g
8r
8d
=21
*>C
(<16dLL
16g
16b-
16ddJJ)
(<16dLL
16g
16b-
16ddJJ)
=22
(<16dLL
16g
16b-
16ddJJ
16cc#XLL
16b-
16a
16gJJ)
=23
(<16dLL
16g
16b-
16ddJJ
16cc#XLL
16b-
16a
16gJJ)
=24
8cc#XL
(>8qee/
[8ddJ)
16dd]
16r
8ff
=25
16ffLL
(>16ee
16gg)
(>16ffJJ
16eeLL)
(>16dd
16ff)
(>16eeJJ
=26
16ddLL)
(>16cc#X
16ee)
(>16ddJJ
16cc#LL
16b-
16a
16gJJ)
=27
(>8qdd/
4gg)
4dd
=28
4.g
8r
==
*-
!!!RDF**kern: > = above
!!!RDF**kern: < = below
